X: 303
T: Shandan huakai
L: 1/8
M: 2/4
K: G
d Bd2 [I:setbarnb 1]| 
Bd2g | 
e d E G | 
A B d B | 
d> g e B | 
A d A G | 
ED2G | 
A d A3/ B/ | 
A4 | 
A Bd2 | 
g ed2 | 
B A/ B/d2 | 
G> B A/ B/ A/ B/ | 
D3E | 
G> E G3/ E/ | 
G3A | 
B/ B/ B/ B/ A B/ A/ | 
G> E D E/ G/ | 
D4 |]

@@@ Tune index: 9177
